logos/imba.svg

<?xml version="1.0" encoding="UTF-8"?>
<svg width="512px" height="135px" viewBox="0 0 512 135" version="1.1" xmlns="http://www.w3.org/2000/svg" xmlns:xlink="http://www.w3.org/1999/xlink" preserveAspectRatio="xMidYMid">
    <title>imba</title>
    <g>
        <path d="M176.130056,131.660698 C174.443622,131.660698 173.076483,130.294025 173.076483,128.607591 L173.076483,48.5094434 L173.076483,48.5094434 C173.076483,46.8230096 174.443622,45.4563363 176.130056,45.4563363 L195.67367,45.4563363 L195.67367,45.4563363 C197.360104,45.4563363 198.726777,46.8230096 198.727243,48.5094434 L198.727243,128.607591 L198.727243,128.607591 C198.726777,130.294025 197.360104,131.660698 195.67367,131.660698 L176.130056,131.660698 L176.130056,131.660698 Z M185.820757,29.2221969 C194.159262,29.2221969 200.918955,22.6805853 200.918955,14.6110984 C200.918955,6.54161159 194.159262,0 185.820757,0 C177.482253,0 170.72256,6.54161159 170.72256,14.6110984 C170.72256,22.6805853 177.482253,29.2221969 185.820757,29.2221969 Z M309.283281,42.6964208 C316.101731,42.6964208 321.567026,44.9962727 325.680097,49.5959767 C329.518529,53.8890336 331.565489,59.7140989 331.821357,67.0711723 L331.848772,128.607591 L331.848772,128.607591 C331.848772,129.417247 331.527147,130.193809 330.954747,130.766674 C330.381882,131.339073 329.605321,131.660698 328.795665,131.660698 L309.25205,131.660698 L309.25205,131.660698 C308.441928,131.660698 307.665367,131.339073 307.092968,130.766674 C306.520102,130.193809 306.198477,129.417247 306.198477,128.607591 L306.198477,73.0545599 L306.198477,73.0545599 C306.198477,65.3705186 303.763449,61.5282649 298.893394,61.5282649 C296.187549,61.5282649 293.806591,62.4483922 291.750056,64.2881805 C290.684032,65.2418686 289.632458,66.457518 288.595334,67.9351286 C286.809616,70.3557065 285.846139,73.2843587 285.846139,76.2922518 L285.762347,98.2244405 L285.762347,98.2244405 L285.743126,128.607591 L285.743126,128.607591 C285.743126,129.417247 285.421501,130.193809 284.849102,130.766674 C284.276236,131.339073 283.499675,131.660698 282.690019,131.660698 L263.146404,131.660698 L263.146404,131.660698 C262.336282,131.660698 261.559721,131.339073 260.987322,130.766674 C260.414456,130.193809 260.092831,129.417247 260.092831,128.607591 L260.092831,73.0545599 L260.092831,73.0545599 C260.092831,65.3705186 257.657804,61.5282649 252.787748,61.5282649 C250.190043,61.5282649 247.836121,62.4754273 245.725515,64.369286 C244.480966,65.4861172 243.264851,66.9133865 242.076703,68.65156 C240.542225,70.8218297 239.718119,73.4148732 239.718119,76.0727077 L239.63748,128.607591 L239.63748,128.607591 C239.63748,129.417247 239.315855,130.193809 238.743456,130.766674 C238.17059,131.339073 237.394029,131.660698 236.584373,131.660698 L217.040758,131.660698 L217.040758,131.660698 C215.354325,131.660698 213.987185,130.294025 213.987185,128.607591 L213.987185,48.5094434 L213.987185,48.5094434 C213.987185,46.8230096 215.354325,45.4563363 217.040758,45.4563363 L233.831449,45.4563363 L233.831449,45.4563363 C235.311856,45.4563363 236.579245,46.518165 236.837944,47.9761985 L237.528738,51.870658 L237.528738,51.870658 C237.645269,52.5232305 238.122113,53.0532126 238.758371,53.2382635 C239.395096,53.4233144 240.081695,53.2308055 240.52964,52.7423084 C243.238282,49.7833582 246.162739,47.4918964 249.296951,45.8618635 C253.355952,43.7517237 257.982691,42.6964208 263.177635,42.6964208 C267.939549,42.6964208 272.07919,43.8868995 275.597022,46.2678569 C277.275221,47.4040581 279.144599,49.7476796 280.640642,51.8878713 L281.818368,53.6395956 L281.818368,53.6395956 C282.243007,54.2530137 282.916555,54.6478201 283.659555,54.7182047 C284.402555,54.7885893 285.138564,54.5270942 285.670877,54.0041039 L287.529846,52.1604491 C289.892244,49.8694586 292.803805,47.257799 294.915965,46.105646 C298.619676,44.0853644 302.815061,42.9629857 307.502448,42.73851 L309.283281,42.6964208 Z M394.676122,42.6964208 C405.174149,42.6964208 413.210114,46.7008853 418.784015,54.7098145 C424.357917,62.7187436 427.144867,74.0287574 427.144867,88.6398559 C427.144867,97.5143758 425.764676,105.415164 423.005227,112.341755 C420.245311,119.268346 416.294917,124.680037 411.154044,128.576361 C406.013171,132.472685 399.925136,134.420614 392.890404,134.420614 C388.128023,134.420614 383.826172,133.473452 379.983918,131.579593 C377.819708,130.512637 375.852668,129.179524 374.083264,127.580256 C373.322085,126.890393 372.243942,126.673646 371.275338,127.015781 C370.306734,127.357915 369.603354,128.203929 369.444406,129.218679 L369.408981,129.218679 C369.188038,130.624506 367.97705,131.660698 366.55351,131.660698 L349.350766,131.660698 L349.350766,131.660698 C347.664799,131.660698 346.297659,130.294025 346.297659,128.607591 L346.297659,13.9440761 L346.297659,13.9440761 C346.297659,12.3844278 347.473222,11.0750877 349.024014,10.9082156 L368.568095,8.80553373 L368.568095,8.80553373 C369.42949,8.71277521 370.289954,8.99058465 370.935068,9.56950969 C371.579717,10.1489009 371.947954,10.9744051 371.947954,11.8413943 L371.947954,48.6916976 L371.947954,48.6916976 C371.94842,49.5372451 372.449969,50.3016872 373.225598,50.6386943 C374.000761,50.9757014 374.902243,50.8204823 375.520322,50.2438879 C377.345661,48.5430043 379.460928,47.0882337 381.850742,45.8618635 C385.506805,43.9861837 389.290667,42.9439552 393.202982,42.7355054 L394.676122,42.6964208 Z M385.11174,115.760303 L385.584855,115.750981 C395.541713,115.750981 400.520375,106.713784 400.520375,88.6398559 C400.520375,78.4662505 399.329896,71.4040176 396.948939,67.4536233 C394.567982,63.503229 391.158756,61.5282649 386.721263,61.5282649 C383.135377,61.5282649 379.895821,62.7914589 377.00306,65.3169145 C373.814778,68.1253069 371.988041,72.1684597 371.988041,76.4171728 L371.947954,102.276291 L371.947954,102.276291 C371.948886,109.59862 377.791275,115.583642 385.11174,115.760303 Z M506.854734,106.659713 C506.854734,109.906728 507.314798,112.287685 508.234459,113.803052 C508.813384,114.756274 509.616981,115.559404 510.645249,116.212909 C511.771402,116.947985 512.267823,118.345423 511.857169,119.626329 L511.572375,120.638516 L511.572375,120.638516 L510.859978,122.94938 C510.73017,123.358024 510.596422,123.775641 510.46113,124.198066 C509.443117,127.37656 507.052837,129.930449 503.948922,131.156819 C501.155399,132.260552 498.048879,132.184034 495.330037,130.973476 L494.435347,130.52429 L494.435347,130.52429 C491.134263,128.684502 488.509989,125.708305 486.561594,121.5957 C480.933622,130.145798 472.275383,134.420614 460.586878,134.420614 C452.036779,134.420614 445.218329,131.931516 440.131526,126.952854 C435.044724,121.974192 432.501089,115.480629 432.501089,107.4717 C432.501089,98.0555449 435.964385,90.8586024 442.891442,85.8799403 C449.433222,81.1778705 458.726155,78.6964208 470.770634,78.4352275 L478.453381,78.4121802 L478.453381,78.4121802 C479.312446,78.4121802 480.135619,78.070978 480.742978,77.4636194 C481.350336,76.8562609 481.691539,76.0330873 481.691539,75.1740222 L481.691539,74.6780671 C481.691539,69.5912644 480.609201,66.1009337 478.444524,64.2070751 C476.279848,62.3127503 472.492131,61.3660541 467.08044,61.3660541 C464.266454,61.3660541 460.857229,61.7715813 456.852765,62.5835679 C453.741392,63.2142326 450.564296,64.0248209 447.321943,65.0148666 C445.750642,65.4977703 444.079124,64.649426 443.541684,63.0958373 L439.65375,51.8687935 L439.65375,51.8687935 C439.102792,50.2788472 439.94228,48.5430043 441.530362,47.9873854 C446.032646,46.4356612 450.625358,45.2120878 455.310363,44.3199279 C460.992405,43.2375898 466.26892,42.6964208 471.138975,42.6964208 C483.477257,42.6964208 492.514454,45.239589 498.250566,50.3263917 C503.64926,55.1139707 506.507392,62.1547345 506.824962,71.4479059 L506.854734,106.659713 Z M468.054638,116.075869 C470.466626,116.075869 472.699508,115.5591 474.753579,114.525268 L475.76618,113.965263 L475.76618,113.965263 C479.443892,111.741389 481.691539,107.756501 481.691539,103.458845 L481.691539,96.0101962 L481.691539,96.0101962 C481.691539,94.0911669 480.136085,92.5361799 478.217522,92.5361799 L475.360187,92.5361799 L475.360187,92.5361799 C469.515468,92.5361799 465.159546,93.5639816 462.29149,95.6205172 C459.423434,97.6770528 457.989173,100.869531 457.989173,105.198883 C457.989173,108.662179 458.882265,111.340989 460.667983,113.234848 C462.255288,114.918277 464.376989,115.8537 467.033413,116.040789 L468.054638,116.075869 Z" fill="#273240"></path>
        <path d="M152.465446,52.1209661 C135.589455,20.2908099 -15.0792823,-12.2320055 1.23269978,8.80506761 C17.5446818,29.8421407 89.8128919,58.7091517 94.0951659,59.2451934 C71.9226166,66.2076759 12.7426804,78.6965154 25.4105112,89.2164503 C38.0783419,99.7363852 98.249256,87.9872834 98.1499718,88.1741988 C81.4879312,100.73016 60.7417189,138.635766 81.585817,130.536875 C114.473141,117.759039 162.298781,70.668009 152.465446,52.1209661 Z" fill="#16CEC6"></path>
    </g>
</svg>

<svg width="512" height="135" xmlns="http://www.w3.org/2000/svg" preserveAspectRatio="xMidYMid">
	<path d="M176.13 131.66a3.053 3.053 0 0 1-3.054-3.052V48.509a3.053 3.053 0 0 1 3.054-3.053h19.544a3.053 3.053 0 0 1 3.053 3.053v80.099a3.053 3.053 0 0 1-3.053 3.053H176.13Zm9.69-102.438c8.34 0 15.099-6.541 15.099-14.61 0-8.07-6.76-14.612-15.098-14.612-8.339 0-15.098 6.542-15.098 14.611 0 8.07 6.76 14.611 15.098 14.611Zm123.463 13.474c6.819 0 12.284 2.3 16.397 6.9 3.839 4.293 5.885 10.118 6.141 17.475l.028 61.537a3.055 3.055 0 0 1-3.053 3.053h-19.544a3.053 3.053 0 0 1-3.054-3.053V73.055c0-7.684-2.435-11.527-7.305-11.527-2.705 0-5.086.92-7.143 2.76-1.066.954-2.118 2.17-3.155 3.647a14.077 14.077 0 0 0-2.749 8.357l-.084 21.932-.019 30.384a3.055 3.055 0 0 1-3.053 3.053h-19.544a3.053 3.053 0 0 1-3.053-3.053V73.055c0-7.684-2.435-11.527-7.305-11.527-2.598 0-4.952.947-7.062 2.841-1.245 1.117-2.461 2.544-3.65 4.283a12.855 12.855 0 0 0-2.358 7.42l-.08 52.536a3.055 3.055 0 0 1-3.054 3.053h-19.543a3.053 3.053 0 0 1-3.054-3.053V48.509a3.053 3.053 0 0 1 3.054-3.053h16.79a3.053 3.053 0 0 1 3.007 2.52l.69 3.895a1.744 1.744 0 0 0 3.002.871c2.708-2.959 5.633-5.25 8.767-6.88 4.059-2.11 8.686-3.166 13.88-3.166 4.763 0 8.902 1.19 12.42 3.572 1.678 1.136 3.548 3.48 5.044 5.62l1.177 1.752a2.53 2.53 0 0 0 3.853.364l1.859-1.844c2.362-2.29 5.274-4.902 7.386-6.054 3.704-2.02 7.9-3.143 12.586-3.367l1.781-.043Zm85.393 0c10.498 0 18.534 4.005 24.108 12.014 5.574 8.009 8.36 19.319 8.36 33.93 0 8.874-1.38 16.775-4.139 23.702-2.76 6.926-6.71 12.338-11.851 16.234-5.14 3.897-11.229 5.845-18.264 5.845-4.762 0-9.064-.948-12.906-2.841a25.704 25.704 0 0 1-5.9-4 2.795 2.795 0 0 0-4.64 1.639h-.035a2.89 2.89 0 0 1-2.855 2.442H349.35a3.053 3.053 0 0 1-3.053-3.053V13.944a3.053 3.053 0 0 1 2.726-3.036l19.544-2.102a3.055 3.055 0 0 1 3.38 3.035v36.85a2.124 2.124 0 0 0 3.572 1.553c1.826-1.701 3.94-3.156 6.33-4.382 3.657-1.876 7.44-2.918 11.353-3.126l1.473-.04Zm-9.564 73.064.473-.009c9.957 0 14.935-9.037 14.935-27.111 0-10.174-1.19-17.236-3.571-21.186-2.381-3.95-5.79-5.926-10.228-5.926-3.586 0-6.825 1.263-9.718 3.789a14.792 14.792 0 0 0-5.015 11.1l-.04 25.86c0 7.322 5.843 13.307 13.164 13.483Zm121.743-9.1c0 3.247.46 5.628 1.38 7.143.578.953 1.382 1.756 2.41 2.41a2.987 2.987 0 0 1 1.212 3.413l-.285 1.013-.712 2.31-.399 1.25a11.134 11.134 0 0 1-15.131 6.774l-.895-.449c-3.3-1.84-5.925-4.816-7.873-8.928-5.628 8.55-14.287 12.825-25.975 12.825-8.55 0-15.369-2.49-20.455-7.468-5.087-4.979-7.63-11.472-7.63-19.481 0-9.416 3.462-16.613 10.39-21.592 6.541-4.702 15.834-7.184 27.879-7.445l7.682-.023a3.237 3.237 0 0 0 3.239-3.238v-.496c0-5.087-1.083-8.577-3.247-10.47-2.165-1.895-5.953-2.842-11.365-2.842-2.814 0-6.223.406-10.227 1.218-3.112.63-6.289 1.44-9.531 2.43a3.051 3.051 0 0 1-3.78-1.918l-3.888-11.227a3.053 3.053 0 0 1 1.876-3.882 99.167 99.167 0 0 1 13.78-3.667c5.682-1.082 10.959-1.624 15.829-1.624 12.338 0 21.375 2.544 27.112 7.63 5.398 4.788 8.256 11.829 8.574 21.122l.03 35.212Zm-38.8 9.416c2.412 0 4.645-.517 6.699-1.55l1.012-.56a12.278 12.278 0 0 0 5.926-10.507V96.01a3.474 3.474 0 0 0-3.474-3.474h-2.858c-5.845 0-10.2 1.028-13.069 3.085-2.868 2.056-4.302 5.249-4.302 9.578 0 3.463.893 6.142 2.679 8.036 1.587 1.683 3.709 2.619 6.365 2.806l1.022.035Z" fill="#273240"/>
	<path d="M152.465 52.121C135.59 20.291-15.079-12.232 1.233 8.805c16.312 21.037 88.58 49.904 92.862 50.44-22.172 6.963-81.352 19.452-68.684 29.971 12.667 10.52 72.838-1.229 72.739-1.042-16.662 12.556-37.408 50.462-16.564 42.363 32.887-12.778 80.713-59.869 70.88-78.416Z" fill="#16CEC6"/>
</svg>
